**harm	**harte	**timestamp	**phrase	**leadinstrument	**kern
*M4/4	*M4/4	*	*	*	*
*G:	*G:	*	*	*	*G:
1r;	N	0	.	r	1r;
=1	=1	=1	=1	=1	=1
*>A2_intro	*>A2_intro	*>A2_intro	*>A2_intro	*>A2_intro	*>A2_intro
1V7	D:7	1.746	newline	r	1D 1f# 1a 1cc
=2	=2	=2	=2	=2	=2
1IVm7	C:7	3.76	.	r	1C 1e 1g 1b
=3	=3	=3	=3	=3	=3
1I	G:maj	5.774	.	r	1G 1b 1dd
=4	=4	=4	=4	=4	=4
1I	G:maj	7.787	.	r	1G 1b 1dd
=5	=5	=5	=5	=5	=5
*>A_chorus	*>A_chorus	*>A_chorus	*>A_chorus	*>A_chorus	*>A_chorus
1I	G:maj	9.801	newline	voice	1G 1b 1dd
=6	=6	=6	=6	=6	=6
1I	G:maj	11.832	.	voice	1G 1b 1dd
=7	=7	=7	=7	=7	=7
1I	G:maj	13.864	.	voice	1G 1b 1dd
=8	=8	=8	=8	=8	=8
1I	G:maj	15.895	.	voice	1G 1b 1dd
=9	=9	=9	=9	=9	=9
1IVm7	C:7	17.926	newline	voice	1C 1e 1g 1b
=10	=10	=10	=10	=10	=10
1IVm7	C:7	19.946	.	voice	1C 1e 1g 1b
=11	=11	=11	=11	=11	=11
1I	G:maj	21.966	.	voice	1G 1b 1dd
=12	=12	=12	=12	=12	=12
1I	G:maj	23.987	.	voice	1G 1b 1dd
=13	=13	=13	=13	=13	=13
1V7	D:7	26.007	newline	voice	1D 1f# 1a 1cc
=14	=14	=14	=14	=14	=14
1IVm7	C:7	28.021	.	voice	1C 1e 1g 1b
=15	=15	=15	=15	=15	=15
1I	G:maj	30.035	.	voice	1G 1b 1dd
=16	=16	=16	=16	=16	=16
1I	G:maj	32.049	.	voice	1G 1b 1dd
=17	=17	=17	=17	=17	=17
*>A_chorus	*>A_chorus	*>A_chorus	*>A_chorus	*>A_chorus	*>A_chorus
1I	G:maj	34.063	newline	voice	1G 1b 1dd
=18	=18	=18	=18	=18	=18
1I	G:maj	36.083	.	voice	1G 1b 1dd
=19	=19	=19	=19	=19	=19
1I	G:maj	38.103	.	voice	1G 1b 1dd
=20	=20	=20	=20	=20	=20
1I	G:maj	40.123	.	voice	1G 1b 1dd
=21	=21	=21	=21	=21	=21
1IVm7	C:7	42.142	newline	voice	1C 1e 1g 1b
=22	=22	=22	=22	=22	=22
1IVm7	C:7	44.158	.	voice	1C 1e 1g 1b
=23	=23	=23	=23	=23	=23
1I	G:maj	46.173	.	voice	1G 1b 1dd
=24	=24	=24	=24	=24	=24
1I	G:maj	48.189	.	voice	1G 1b 1dd
=25	=25	=25	=25	=25	=25
1V7	D:7	50.204	newline	voice	1D 1f# 1a 1cc
=26	=26	=26	=26	=26	=26
1IVm7	C:7	52.231	.	voice	1C 1e 1g 1b
=27	=27	=27	=27	=27	=27
1I	G:maj	54.259	.	voice	1G 1b 1dd
=28	=28	=28	=28	=28	=28
1I	G:maj	56.286	.	voice	1G 1b 1dd
=29	=29	=29	=29	=29	=29
*>A_chorus	*>A_chorus	*>A_chorus	*>A_chorus	*>A_chorus	*>A_chorus
1I	G:maj	58.314	newline	voice	1G 1b 1dd
=30	=30	=30	=30	=30	=30
1I	G:maj	60.319	.	voice	1G 1b 1dd
=31	=31	=31	=31	=31	=31
1I	G:maj	62.325	.	voice	1G 1b 1dd
=32	=32	=32	=32	=32	=32
1I	G:maj	64.33	.	voice	1G 1b 1dd
=33	=33	=33	=33	=33	=33
1IVm7	C:7	66.336	newline	voice	1C 1e 1g 1b
=34	=34	=34	=34	=34	=34
1IVm7	C:7	68.345	.	voice	1C 1e 1g 1b
=35	=35	=35	=35	=35	=35
1I	G:maj	70.354	.	voice	1G 1b 1dd
=36	=36	=36	=36	=36	=36
1I	G:maj	72.364	.	voice	1G 1b 1dd
=37	=37	=37	=37	=37	=37
1V7	D:7	74.373	newline	voice	1D 1f# 1a 1cc
=38	=38	=38	=38	=38	=38
1IVm7	C:7	76.378	.	voice	1C 1e 1g 1b
=39	=39	=39	=39	=39	=39
1I	G:maj	78.383	.	voice	1G 1b 1dd
=40	=40	=40	=40	=40	=40
1I	G:maj	80.389	.	voice	1G 1b 1dd
=41	=41	=41	=41	=41	=41
*>A_solo	*>A_solo	*>A_solo	*>A_solo	*>A_solo	*>A_solo
1I	G:maj	82.394	newline	guitar	1G 1b 1dd
=42	=42	=42	=42	=42	=42
1I	G:maj	84.421	.	guitar	1G 1b 1dd
=43	=43	=43	=43	=43	=43
1I	G:maj	86.449	.	guitar	1G 1b 1dd
=44	=44	=44	=44	=44	=44
1I	G:maj	88.476	.	guitar	1G 1b 1dd
=45	=45	=45	=45	=45	=45
1IVm7	C:7	90.503	newline	guitar	1C 1e 1g 1b
=46	=46	=46	=46	=46	=46
1IVm7	C:7	92.481	.	guitar	1C 1e 1g 1b
=47	=47	=47	=47	=47	=47
1I	G:maj	94.46	.	guitar	1G 1b 1dd
=48	=48	=48	=48	=48	=48
1I	G:maj	96.438	.	guitar	1G 1b 1dd
=49	=49	=49	=49	=49	=49
1V7	D:7	98.416	newline	guitar	1D 1f# 1a 1cc
=50	=50	=50	=50	=50	=50
1IVm7	C:7	100.407	.	guitar	1C 1e 1g 1b
=51	=51	=51	=51	=51	=51
1I	G:maj	102.397	.	guitar	1G 1b 1dd
=52	=52	=52	=52	=52	=52
1I	G:maj	104.388	.	guitar	1G 1b 1dd
=53	=53	=53	=53	=53	=53
*>A_chorus	*>A_chorus	*>A_chorus	*>A_chorus	*>A_chorus	*>A_chorus
1I	G:maj	106.379	newline	voice	1G 1b 1dd
=54	=54	=54	=54	=54	=54
1I	G:maj	108.413	.	voice	1G 1b 1dd
=55	=55	=55	=55	=55	=55
1I	G:maj	110.448	.	voice	1G 1b 1dd
=56	=56	=56	=56	=56	=56
1I	G:maj	112.482	.	voice	1G 1b 1dd
=57	=57	=57	=57	=57	=57
1IVm7	C:7	114.517	newline	voice	1C 1e 1g 1b
=58	=58	=58	=58	=58	=58
1IVm7	C:7	116.542	.	voice	1C 1e 1g 1b
=59	=59	=59	=59	=59	=59
1I	G:maj	118.567	.	voice	1G 1b 1dd
=60	=60	=60	=60	=60	=60
1I	G:maj	120.592	.	voice	1G 1b 1dd
=61	=61	=61	=61	=61	=61
1V7	D:7	122.616	newline	voice	1D 1f# 1a 1cc
=62	=62	=62	=62	=62	=62
1IVm7	C:7	124.585	.	voice	1C 1e 1g 1b
=63	=63	=63	=63	=63	=63
1I	G:maj	126.554	.	voice	1G 1b 1dd
=64	=64	=64	=64	=64	=64
1I	G:maj	128.523	.	voice	1G 1b 1dd
=65	=65	=65	=65	=65	=65
*>A_solo	*>A_solo	*>A_solo	*>A_solo	*>A_solo	*>A_solo
1I	G:maj	130.492	newline	guitar	1G 1b 1dd
=66	=66	=66	=66	=66	=66
1I	G:maj	132.494	.	guitar	1G 1b 1dd
=67	=67	=67	=67	=67	=67
1I	G:maj	134.496	.	guitar	1G 1b 1dd
=68	=68	=68	=68	=68	=68
1I	G:maj	136.498	.	guitar	1G 1b 1dd
=69	=69	=69	=69	=69	=69
1IVm7	C:7	138.499	newline	guitar	1C 1e 1g 1b
=70	=70	=70	=70	=70	=70
1IVm7	C:7	140.504	.	guitar	1C 1e 1g 1b
=71	=71	=71	=71	=71	=71
1I	G:maj	142.508	.	guitar	1G 1b 1dd
=72	=72	=72	=72	=72	=72
1I	G:maj	144.512	.	guitar	1G 1b 1dd
=73	=73	=73	=73	=73	=73
1V7	D:7	146.516	newline	voice	1D 1f# 1a 1cc
=74	=74	=74	=74	=74	=74
1IVm7	C:7	148.531	.	voice	1C 1e 1g 1b
=75	=75	=75	=75	=75	=75
1I	G:maj	150.545	.	voice	1G 1b 1dd
=76	=76	=76	=76	=76	=76
1I	G:maj	152.56	.	voice	1G 1b 1dd
=77	=77	=77	=77	=77	=77
1V7	D:7	154.574	newline	guitar	1D 1f# 1a 1cc
=78	=78	=78	=78	=78	=78
1IVm7	C:7	156.582	.	guitar	1C 1e 1g 1b
=79	=79	=79	=79	=79	=79
1I	G:maj	158.59	.	guitar	1G 1b 1dd
=80	=80	=80	=80	=80	=80
2I	G:maj	160.598	.	guitar	2G 2b 2dd
4V7	D:7	161.602	.	guitar	4D 4f# 4a 4cc
4IVm7	C:7	162.104	.	guitar	4C 4e 4g 4b
=81	=81	=81	=81	=81	=81
1I	G:maj	162.606	.	guitar	1G 1b 1dd
1r;	N	166.371	.	r	1r;
1r;	N	169.9	.	r	1r;
*-	*-	*-	*-	*-	*-
!!!OTL: Let's Work Together
!!!COC: Canned Heat
!!!BillboardChartDate: 1970/10/10
!!!BillboardPeak: 26
!!!BillboardWeeksOnChart: 11
!!!SampleTargetRank: 85
!!!SampleActualRank: 84
!!!SampleID#: 0577
!!!RDF**harmony: **recip + pitch class of root + harmonic quality
!!!RDF**harte: Chris Harte's syntax, used by MIREX
!!!RDF**phrase: newline = linebreak in original McGill transcription
!!!RDF**timestamp: McGill audio timestamp in seconds
!!!RDF**leadinstrument: original McGill primary instrumentation annotation
!!!RDT: 2017/01/12/
!!!ENC: Nathaniel Condit-Schultz
!!!EST: Awating manual error checking and editing.
